images/50907423.svg

<?xml version="1.0" encoding="UTF-8"?>
<svg xmlns="http://www.w3.org/2000/svg" xmlns:xlink="http://www.w3.org/1999/xlink" width="300pt" height="300pt" viewBox="0 0 300 300" version="1.1">
<defs>
<g>
<symbol overflow="visible" id="glyph0-0">
<path style="stroke:none;" d="M 0.75 2.65625 L 0.75 -10.578125 L 8.25 -10.578125 L 8.25 2.65625 Z M 1.59375 1.8125 L 7.40625 1.8125 L 7.40625 -9.734375 L 1.59375 -9.734375 Z M 1.59375 1.8125 "/>
</symbol>
<symbol overflow="visible" id="glyph0-1">
<path style="stroke:none;" d="M 5.90625 -9.9375 C 4.832031 -9.9375 3.976562 -9.535156 3.34375 -8.734375 C 2.71875 -7.929688 2.40625 -6.835938 2.40625 -5.453125 C 2.40625 -4.078125 2.71875 -2.988281 3.34375 -2.1875 C 3.976562 -1.382812 4.832031 -0.984375 5.90625 -0.984375 C 6.976562 -0.984375 7.828125 -1.382812 8.453125 -2.1875 C 9.085938 -2.988281 9.40625 -4.078125 9.40625 -5.453125 C 9.40625 -6.835938 9.085938 -7.929688 8.453125 -8.734375 C 7.828125 -9.535156 6.976562 -9.9375 5.90625 -9.9375 Z M 5.90625 -11.140625 C 7.4375 -11.140625 8.660156 -10.625 9.578125 -9.59375 C 10.503906 -8.5625 10.96875 -7.179688 10.96875 -5.453125 C 10.96875 -3.734375 10.503906 -2.359375 9.578125 -1.328125 C 8.660156 -0.296875 7.4375 0.21875 5.90625 0.21875 C 4.375 0.21875 3.144531 -0.289062 2.21875 -1.3125 C 1.300781 -2.34375 0.84375 -3.722656 0.84375 -5.453125 C 0.84375 -7.179688 1.300781 -8.5625 2.21875 -9.59375 C 3.144531 -10.625 4.375 -11.140625 5.90625 -11.140625 Z M 5.90625 -11.140625 "/>
</symbol>
<symbol overflow="visible" id="glyph0-2">
<path style="stroke:none;" d="M 1.46875 -10.9375 L 3.46875 -10.9375 L 8.3125 -1.78125 L 8.3125 -10.9375 L 9.75 -10.9375 L 9.75 0 L 7.75 0 L 2.90625 -9.140625 L 2.90625 0 L 1.46875 0 Z M 1.46875 -10.9375 "/>
</symbol>
<symbol overflow="visible" id="glyph0-3">
<path style="stroke:none;" d="M 1.46875 -10.9375 L 2.953125 -10.9375 L 2.953125 -6.453125 L 8.328125 -6.453125 L 8.328125 -10.9375 L 9.8125 -10.9375 L 9.8125 0 L 8.328125 0 L 8.328125 -5.203125 L 2.953125 -5.203125 L 2.953125 0 L 1.46875 0 Z M 1.46875 -10.9375 "/>
</symbol>
</g>
</defs>
<g id="surface11817">
<rect x="0" y="0" width="300" height="300" style="fill:rgb(100%,100%,100%);fill-opacity:1;stroke:none;"/>
<path style="fill:none;stroke-width:1.2;stroke-linecap:butt;stroke-linejoin:miter;stroke:rgb(100%,0%,0%);stroke-opacity:1;stroke-miterlimit:10;" d="M 134.585938 210.15625 L 127.113281 194.292969 "/>
<path style="fill:none;stroke-width:1.2;stroke-linecap:butt;stroke-linejoin:miter;stroke:rgb(0%,0%,0%);stroke-opacity:1;stroke-miterlimit:10;" d="M 127.113281 194.292969 L 119.636719 178.429688 "/>
<path style="fill:none;stroke-width:1.2;stroke-linecap:butt;stroke-linejoin:miter;stroke:rgb(0%,0%,0%);stroke-opacity:1;stroke-miterlimit:10;" d="M 109.03125 234.179688 L 121.808594 222.167969 "/>
<path style="fill:none;stroke-width:1.2;stroke-linecap:butt;stroke-linejoin:miter;stroke:rgb(100%,0%,0%);stroke-opacity:1;stroke-miterlimit:10;" d="M 121.808594 222.167969 L 134.585938 210.15625 "/>
<path style=" stroke:none;fill-rule:nonzero;fill:rgb(100%,100%,100%);fill-opacity:1;" d="M 128.585938 201.15625 L 140.585938 201.15625 L 140.585938 219.15625 L 128.585938 219.15625 Z M 128.585938 201.15625 "/>
<g style="fill:rgb(100%,0%,0%);fill-opacity:1;">
  <use xlink:href="#glyph0-1" x="128.585938" y="214.770508"/>
</g>
<path style="fill:none;stroke-width:1.2;stroke-linecap:butt;stroke-linejoin:miter;stroke:rgb(0%,0%,0%);stroke-opacity:1;stroke-miterlimit:10;" d="M 119.636719 178.429688 L 133.210938 146.089844 "/>
<path style="fill:none;stroke-width:1.2;stroke-linecap:butt;stroke-linejoin:miter;stroke:rgb(0%,0%,0%);stroke-opacity:1;stroke-miterlimit:10;" d="M 113.386719 172 L 124.246094 146.128906 "/>
<path style="fill:none;stroke-width:1.2;stroke-linecap:butt;stroke-linejoin:miter;stroke:rgb(0%,0%,0%);stroke-opacity:1;stroke-miterlimit:10;" d="M 84.84375 182.84375 L 119.636719 178.429688 "/>
<path style="fill:none;stroke-width:1.2;stroke-linecap:butt;stroke-linejoin:miter;stroke:rgb(0%,0%,0%);stroke-opacity:1;stroke-miterlimit:10;" d="M 133.210938 146.089844 L 168.007812 141.675781 "/>
<path style="fill:none;stroke-width:1.2;stroke-linecap:butt;stroke-linejoin:miter;stroke:rgb(0%,0%,0%);stroke-opacity:1;stroke-miterlimit:10;" d="M 111.992188 118.164062 L 133.210938 146.089844 "/>
<path style="fill:none;stroke-width:1.2;stroke-linecap:butt;stroke-linejoin:miter;stroke:rgb(0%,0%,0%);stroke-opacity:1;stroke-miterlimit:10;" d="M 168.007812 141.675781 L 181.582031 109.335938 "/>
<path style="fill:none;stroke-width:1.2;stroke-linecap:butt;stroke-linejoin:miter;stroke:rgb(0%,0%,0%);stroke-opacity:1;stroke-miterlimit:10;" d="M 176.976562 141.636719 L 187.835938 115.765625 "/>
<path style="fill:none;stroke-width:1.2;stroke-linecap:butt;stroke-linejoin:miter;stroke:rgb(0%,0%,0%);stroke-opacity:1;stroke-miterlimit:10;" d="M 189.226562 169.605469 L 168.007812 141.675781 "/>
<path style="fill:none;stroke-width:1.2;stroke-linecap:butt;stroke-linejoin:miter;stroke:rgb(0%,0%,0%);stroke-opacity:1;stroke-miterlimit:10;" d="M 181.582031 109.335938 L 160.363281 81.410156 "/>
<path style="fill:none;stroke-width:1.2;stroke-linecap:butt;stroke-linejoin:miter;stroke:rgb(0%,0%,0%);stroke-opacity:1;stroke-miterlimit:10;" d="M 181.582031 109.335938 L 216.378906 104.925781 "/>
<path style="fill:none;stroke-width:1.2;stroke-linecap:butt;stroke-linejoin:miter;stroke:rgb(0%,0%,0%);stroke-opacity:1;stroke-miterlimit:10;" d="M 160.363281 81.410156 L 125.570312 85.824219 "/>
<path style="fill:none;stroke-width:1.2;stroke-linecap:butt;stroke-linejoin:miter;stroke:rgb(0%,0%,0%);stroke-opacity:1;stroke-miterlimit:10;" d="M 157.921875 90.039062 L 130.085938 93.570312 "/>
<path style="fill:none;stroke-width:1.2;stroke-linecap:butt;stroke-linejoin:miter;stroke:rgb(0%,0%,0%);stroke-opacity:1;stroke-miterlimit:10;" d="M 125.570312 85.824219 L 111.164062 75.820312 "/>
<path style="fill:none;stroke-width:1.2;stroke-linecap:butt;stroke-linejoin:miter;stroke:rgb(0%,0%,100%);stroke-opacity:1;stroke-miterlimit:10;" d="M 111.164062 75.820312 L 96.757812 65.820312 "/>
<path style="fill:none;stroke-width:1.2;stroke-linecap:butt;stroke-linejoin:miter;stroke:rgb(0%,0%,0%);stroke-opacity:1;stroke-miterlimit:10;" d="M 111.992188 118.164062 L 125.570312 85.824219 "/>
<path style="fill:none;stroke-width:1.2;stroke-linecap:butt;stroke-linejoin:miter;stroke:rgb(0%,0%,100%);stroke-opacity:1;stroke-miterlimit:10;" d="M 96.757812 65.820312 L 82.796875 76.429688 "/>
<path style="fill:none;stroke-width:1.2;stroke-linecap:butt;stroke-linejoin:miter;stroke:rgb(0%,0%,0%);stroke-opacity:1;stroke-miterlimit:10;" d="M 82.796875 76.429688 L 68.832031 87.039062 "/>
<path style=" stroke:none;fill-rule:nonzero;fill:rgb(100%,100%,100%);fill-opacity:1;" d="M 85.757812 56.820312 L 108.757812 56.820312 L 108.757812 74.820312 L 85.757812 74.820312 Z M 85.757812 56.820312 "/>
<g style="fill:rgb(0%,0%,100%);fill-opacity:1;">
  <use xlink:href="#glyph0-2" x="85.757812" y="70.43457"/>
  <use xlink:href="#glyph0-3" x="96.733398" y="70.43457"/>
</g>
<path style="fill:none;stroke-width:1.2;stroke-linecap:butt;stroke-linejoin:miter;stroke:rgb(0%,0%,0%);stroke-opacity:1;stroke-miterlimit:10;" d="M 70.023438 83.089844 L 53.230469 78.027344 "/>
<path style="fill:none;stroke-width:1.2;stroke-linecap:butt;stroke-linejoin:miter;stroke:rgb(100%,0%,0%);stroke-opacity:1;stroke-miterlimit:10;" d="M 53.230469 78.027344 L 36.441406 72.96875 "/>
<path style="fill:none;stroke-width:1.2;stroke-linecap:butt;stroke-linejoin:miter;stroke:rgb(0%,0%,0%);stroke-opacity:1;stroke-miterlimit:10;" d="M 67.640625 90.988281 L 50.851562 85.929688 "/>
<path style="fill:none;stroke-width:1.2;stroke-linecap:butt;stroke-linejoin:miter;stroke:rgb(100%,0%,0%);stroke-opacity:1;stroke-miterlimit:10;" d="M 50.851562 85.929688 L 34.058594 80.867188 "/>
<path style="fill:none;stroke-width:1.2;stroke-linecap:butt;stroke-linejoin:miter;stroke:rgb(0%,0%,0%);stroke-opacity:1;stroke-miterlimit:10;" d="M 68.832031 87.039062 L 77.199219 122.574219 "/>
<path style=" stroke:none;fill-rule:nonzero;fill:rgb(100%,100%,100%);fill-opacity:1;" d="M 23.25 67.917969 L 35.25 67.917969 L 35.25 85.917969 L 23.25 85.917969 Z M 23.25 67.917969 "/>
<g style="fill:rgb(100%,0%,0%);fill-opacity:1;">
  <use xlink:href="#glyph0-1" x="23.25" y="81.532227"/>
</g>
<path style="fill:none;stroke-width:1.2;stroke-linecap:butt;stroke-linejoin:miter;stroke:rgb(0%,0%,0%);stroke-opacity:1;stroke-miterlimit:10;" d="M 77.199219 122.574219 L 111.992188 118.164062 "/>
<path style="fill:none;stroke-width:1.2;stroke-linecap:butt;stroke-linejoin:miter;stroke:rgb(0%,0%,0%);stroke-opacity:1;stroke-miterlimit:10;" d="M 81.714844 130.320312 L 109.550781 126.792969 "/>
<path style="fill:none;stroke-width:1.2;stroke-linecap:butt;stroke-linejoin:miter;stroke:rgb(0%,0%,0%);stroke-opacity:1;stroke-miterlimit:10;" d="M 77.199219 122.574219 L 63.621094 154.914062 "/>
<path style="fill:none;stroke-width:1.2;stroke-linecap:butt;stroke-linejoin:miter;stroke:rgb(0%,0%,0%);stroke-opacity:1;stroke-miterlimit:10;" d="M 63.621094 154.914062 L 84.84375 182.84375 "/>
<path style="fill:none;stroke-width:1.2;stroke-linecap:butt;stroke-linejoin:miter;stroke:rgb(0%,0%,0%);stroke-opacity:1;stroke-miterlimit:10;" d="M 72.316406 152.714844 L 89.289062 175.058594 "/>
<path style="fill:none;stroke-width:1.2;stroke-linecap:butt;stroke-linejoin:miter;stroke:rgb(0%,0%,0%);stroke-opacity:1;stroke-miterlimit:10;" d="M 84.84375 182.84375 L 81.5625 200.070312 "/>
<path style="fill:none;stroke-width:1.2;stroke-linecap:butt;stroke-linejoin:miter;stroke:rgb(100%,0%,0%);stroke-opacity:1;stroke-miterlimit:10;" d="M 81.5625 200.070312 L 78.285156 217.296875 "/>
<path style="fill:none;stroke-width:1.2;stroke-linecap:butt;stroke-linejoin:miter;stroke:rgb(100%,0%,0%);stroke-opacity:1;stroke-miterlimit:10;" d="M 78.285156 217.296875 L 93.660156 225.738281 "/>
<path style="fill:none;stroke-width:1.2;stroke-linecap:butt;stroke-linejoin:miter;stroke:rgb(0%,0%,0%);stroke-opacity:1;stroke-miterlimit:10;" d="M 93.660156 225.738281 L 109.03125 234.179688 "/>
<path style=" stroke:none;fill-rule:nonzero;fill:rgb(100%,100%,100%);fill-opacity:1;" d="M 72.285156 208.296875 L 84.285156 208.296875 L 84.285156 226.296875 L 72.285156 226.296875 Z M 72.285156 208.296875 "/>
<g style="fill:rgb(100%,0%,0%);fill-opacity:1;">
  <use xlink:href="#glyph0-1" x="72.285156" y="221.911133"/>
</g>
<path style="fill:none;stroke-width:1.2;stroke-linecap:butt;stroke-linejoin:miter;stroke:rgb(0%,0%,0%);stroke-opacity:1;stroke-miterlimit:10;" d="M 216.378906 104.925781 L 223.167969 88.753906 "/>
<path style="fill:none;stroke-width:1.2;stroke-linecap:butt;stroke-linejoin:miter;stroke:rgb(100%,0%,0%);stroke-opacity:1;stroke-miterlimit:10;" d="M 223.167969 88.753906 L 229.953125 72.585938 "/>
<path style="fill:none;stroke-width:1.2;stroke-linecap:butt;stroke-linejoin:miter;stroke:rgb(0%,0%,0%);stroke-opacity:1;stroke-miterlimit:10;" d="M 216.378906 104.925781 L 237.597656 132.851562 "/>
<path style="fill:none;stroke-width:1.2;stroke-linecap:butt;stroke-linejoin:miter;stroke:rgb(0%,0%,0%);stroke-opacity:1;stroke-miterlimit:10;" d="M 211.929688 112.710938 L 228.90625 135.050781 "/>
<path style="fill:none;stroke-width:1.2;stroke-linecap:butt;stroke-linejoin:miter;stroke:rgb(100%,0%,0%);stroke-opacity:1;stroke-miterlimit:10;" d="M 229.953125 72.585938 L 247.351562 70.378906 "/>
<path style="fill:none;stroke-width:1.2;stroke-linecap:butt;stroke-linejoin:miter;stroke:rgb(0%,0%,0%);stroke-opacity:1;stroke-miterlimit:10;" d="M 247.351562 70.378906 L 264.75 68.171875 "/>
<path style=" stroke:none;fill-rule:nonzero;fill:rgb(100%,100%,100%);fill-opacity:1;" d="M 223.953125 63.585938 L 235.953125 63.585938 L 235.953125 81.585938 L 223.953125 81.585938 Z M 223.953125 63.585938 "/>
<g style="fill:rgb(100%,0%,0%);fill-opacity:1;">
  <use xlink:href="#glyph0-1" x="223.953125" y="77.200195"/>
</g>
<path style="fill:none;stroke-width:1.2;stroke-linecap:butt;stroke-linejoin:miter;stroke:rgb(0%,0%,0%);stroke-opacity:1;stroke-miterlimit:10;" d="M 237.597656 132.851562 L 224.023438 165.191406 "/>
<path style="fill:none;stroke-width:1.2;stroke-linecap:butt;stroke-linejoin:miter;stroke:rgb(0%,0%,0%);stroke-opacity:1;stroke-miterlimit:10;" d="M 224.023438 165.191406 L 234.632812 179.15625 "/>
<path style="fill:none;stroke-width:1.2;stroke-linecap:butt;stroke-linejoin:miter;stroke:rgb(100%,0%,0%);stroke-opacity:1;stroke-miterlimit:10;" d="M 234.632812 179.15625 L 245.242188 193.117188 "/>
<path style="fill:none;stroke-width:1.2;stroke-linecap:butt;stroke-linejoin:miter;stroke:rgb(0%,0%,0%);stroke-opacity:1;stroke-miterlimit:10;" d="M 224.023438 165.191406 L 189.226562 169.605469 "/>
<path style="fill:none;stroke-width:1.2;stroke-linecap:butt;stroke-linejoin:miter;stroke:rgb(0%,0%,0%);stroke-opacity:1;stroke-miterlimit:10;" d="M 219.503906 157.445312 L 191.667969 160.976562 "/>
<path style="fill:none;stroke-width:1.2;stroke-linecap:butt;stroke-linejoin:miter;stroke:rgb(100%,0%,0%);stroke-opacity:1;stroke-miterlimit:10;" d="M 245.242188 193.117188 L 238.453125 209.289062 "/>
<path style="fill:none;stroke-width:1.2;stroke-linecap:butt;stroke-linejoin:miter;stroke:rgb(0%,0%,0%);stroke-opacity:1;stroke-miterlimit:10;" d="M 238.453125 209.289062 L 231.664062 225.457031 "/>
<path style=" stroke:none;fill-rule:nonzero;fill:rgb(100%,100%,100%);fill-opacity:1;" d="M 239.242188 184.117188 L 251.242188 184.117188 L 251.242188 202.117188 L 239.242188 202.117188 Z M 239.242188 184.117188 "/>
<g style="fill:rgb(100%,0%,0%);fill-opacity:1;">
  <use xlink:href="#glyph0-1" x="239.242188" y="197.731445"/>
</g>
</g>
</svg>

<svg xmlns="http://www.w3.org/2000/svg" xmlns:xlink="http://www.w3.org/1999/xlink" width="300pt" height="300pt" viewBox="0 0 300 300"><defs><symbol overflow="visible"><path d="M.75 2.656v-13.234h7.5V2.656zm.844-.844h5.812V-9.733H1.594zm0 0"/></symbol><symbol overflow="visible" id="a"><path d="M5.906-9.938c-1.074 0-1.93.403-2.562 1.204-.625.804-.938 1.898-.938 3.28 0 1.376.313 2.466.938 3.266.633.805 1.488 1.204 2.562 1.204 1.07 0 1.922-.4 2.547-1.204.633-.8.953-1.89.953-3.265 0-1.383-.32-2.477-.953-3.28-.625-.802-1.476-1.204-2.547-1.204zm0-1.203c1.532 0 2.754.515 3.672 1.546.926 1.03 1.39 2.414 1.39 4.14 0 1.72-.464 3.095-1.39 4.126C8.66-.298 7.438.22 5.906.22c-1.53 0-2.76-.51-3.687-1.532C1.3-2.345.843-3.723.843-5.452c0-1.728.457-3.11 1.375-4.142.925-1.03 2.155-1.547 3.686-1.547zm0 0"/></symbol><symbol overflow="visible" id="b"><path d="M1.47-10.938h2L8.31-1.78v-9.158H9.75V0h-2L2.906-9.14V0H1.47zm0 0"/></symbol><symbol overflow="visible" id="c"><path d="M1.47-10.938h1.483v4.485h5.375v-4.484h1.485V0H8.328v-5.203H2.953V0H1.47zm0 0"/></symbol></defs><g><path fill="#fff" d="M0 0h300v300H0z"/><path d="M134.586 210.156l-7.473-15.863" stroke-width="1.2" stroke="#f00" stroke-miterlimit="10" fill="none"/><path d="M127.113 194.293l-7.476-15.863M109.03 234.18l12.78-12.012" stroke-width="1.2" stroke="#000" stroke-miterlimit="10" fill="none"/><path d="M121.81 222.168l12.776-12.012" stroke-width="1.2" stroke="#f00" stroke-miterlimit="10" fill="none"/><path d="M128.586 201.156h12v18h-12zm0 0" fill="#fff"/><use xlink:href="#a" x="128.586" y="214.771" fill="#f00"/><path d="M119.637 178.43l13.574-32.34M113.387 172l10.86-25.87M84.844 182.844l34.793-4.414M133.21 146.09l34.798-4.414M111.992 118.164l21.22 27.926M168.008 141.676l13.574-32.34M176.977 141.637l10.86-25.87M189.227 169.605l-21.22-27.93M181.582 109.336l-21.22-27.926M181.582 109.336l34.797-4.41M160.363 81.41l-34.793 4.414M157.922 90.04l-27.836 3.53M125.57 85.824L111.164 75.82" stroke-width="1.2" stroke="#000" stroke-miterlimit="10" fill="none"/><path d="M111.164 75.82l-14.406-10" stroke-width="1.2" stroke="#00f" stroke-miterlimit="10" fill="none"/><path d="M111.992 118.164l13.578-32.34" stroke-width="1.2" stroke="#000" stroke-miterlimit="10" fill="none"/><path d="M96.758 65.82l-13.96 10.61" stroke-width="1.2" stroke="#00f" stroke-miterlimit="10" fill="none"/><path d="M82.797 76.43L68.832 87.04" stroke-width="1.2" stroke="#000" stroke-miterlimit="10" fill="none"/><path d="M85.758 56.82h23v18h-23zm0 0" fill="#fff"/><g fill="#00f"><use xlink:href="#b" x="85.758" y="70.435"/><use xlink:href="#c" x="96.733" y="70.435"/></g><path d="M70.023 83.09L53.23 78.027" stroke-width="1.2" stroke="#000" stroke-miterlimit="10" fill="none"/><path d="M53.23 78.027L36.44 72.97" stroke-width="1.2" stroke="#f00" stroke-miterlimit="10" fill="none"/><path d="M67.64 90.988L50.853 85.93" stroke-width="1.2" stroke="#000" stroke-miterlimit="10" fill="none"/><path d="M50.852 85.93L34.06 80.867" stroke-width="1.2" stroke="#f00" stroke-miterlimit="10" fill="none"/><path d="M68.832 87.04l8.367 35.534" stroke-width="1.2" stroke="#000" stroke-miterlimit="10" fill="none"/><path d="M23.25 67.918h12v18h-12zm0 0" fill="#fff"/><use xlink:href="#a" x="23.25" y="81.532" fill="#f00"/><path d="M77.2 122.574l34.792-4.41M81.715 130.32l27.836-3.527M77.2 122.574l-13.58 32.34M63.62 154.914l21.224 27.93M72.316 152.715L89.29 175.06M84.844 182.844l-3.28 17.226" stroke-width="1.2" stroke="#000" stroke-miterlimit="10" fill="none"/><path d="M81.563 200.07l-3.278 17.227M78.285 217.297l15.375 8.44" stroke-width="1.2" stroke="#f00" stroke-miterlimit="10" fill="none"/><path d="M93.66 225.738l15.37 8.442" stroke-width="1.2" stroke="#000" stroke-miterlimit="10" fill="none"/><path d="M72.285 208.297h12v18h-12zm0 0" fill="#fff"/><use xlink:href="#a" x="72.285" y="221.911" fill="#f00"/><path d="M216.38 104.926l6.788-16.172" stroke-width="1.2" stroke="#000" stroke-miterlimit="10" fill="none"/><path d="M223.168 88.754l6.785-16.168" stroke-width="1.2" stroke="#f00" stroke-miterlimit="10" fill="none"/><path d="M216.38 104.926l21.218 27.926M211.93 112.71l16.976 22.34" stroke-width="1.2" stroke="#000" stroke-miterlimit="10" fill="none"/><path d="M229.953 72.586l17.4-2.207" stroke-width="1.2" stroke="#f00" stroke-miterlimit="10" fill="none"/><path d="M247.352 70.38l17.398-2.208" stroke-width="1.2" stroke="#000" stroke-miterlimit="10" fill="none"/><path d="M223.953 63.586h12v18h-12zm0 0" fill="#fff"/><use xlink:href="#a" x="223.953" y="77.2" fill="#f00"/><path d="M237.598 132.852l-13.575 32.34M224.023 165.19l10.61 13.966" stroke-width="1.2" stroke="#000" stroke-miterlimit="10" fill="none"/><path d="M234.633 179.156l10.61 13.96" stroke-width="1.2" stroke="#f00" stroke-miterlimit="10" fill="none"/><path d="M224.023 165.19l-34.796 4.415M219.504 157.445l-27.836 3.532" stroke-width="1.2" stroke="#000" stroke-miterlimit="10" fill="none"/><path d="M245.242 193.117l-6.79 16.172" stroke-width="1.2" stroke="#f00" stroke-miterlimit="10" fill="none"/><path d="M238.453 209.29l-6.79 16.167" stroke-width="1.2" stroke="#000" stroke-miterlimit="10" fill="none"/><path d="M239.242 184.117h12v18h-12zm0 0" fill="#fff"/><use xlink:href="#a" x="239.242" y="197.731" fill="#f00"/></g></svg>
